X: 33577
T: Rakes Of Kildare, The
R: jig
M: 6/8
K: Bminor
F|F2B B2c|d2c def|b2f f2e|dBB B2F|
F2B B2c|d2c def|b2f f2e|dBB B2b|
b2b b2b|b2b d'c'b|a2f f2e|f2e dcB|
b2b b2b|b2b d'c'b|a2f f2e|dBB B2||

